icons/svg/camera-active_14.svg

<svg width="14" height="14" xmlns="http://www.w3.org/2000/svg"><path d="M11 5.867V2.865c0-.754-.612-1.365-1.366-1.365H1.365C.611 1.5 0 2.111 0 2.865v8.269c0 .754.611 1.366 1.365 1.366h8.269c.754 0 1.366-.612 1.366-1.366V8.132l2.112 1.741c.328.27.888.079.888-.303V4.429c0-.382-.56-.573-.888-.303L11 5.867z" fill="#171B1F" fill-rule="evenodd"/></svg>

<?xml version="1.0" encoding="UTF-8"?>
<svg width="14px" height="14px" viewBox="0 0 14 14" version="1.1" xmlns="http://www.w3.org/2000/svg" xmlns:xlink="http://www.w3.org/1999/xlink">
    <!-- Generator: Sketch 59.1 (86144) - https://sketch.com -->
    <title>camera-active_14</title>
    <desc>Created with Sketch.</desc>
    <g id="Icons-Webex" stroke="none" stroke-width="1" fill="none" fill-rule="evenodd">
        <g id="activities/camera-active_14" fill="#171B1F">
            <path d="M11,5.867 L11,2.865 C11,2.111 10.388,1.5 9.634,1.5 L1.365,1.5 C0.611,1.5 0,2.111 0,2.865 L0,11.134 C0,11.888 0.611,12.5 1.365,12.5 L9.634,12.5 C10.388,12.5 11,11.888 11,11.134 L11,8.132 L13.112,9.873 C13.44,10.143 14,9.952 14,9.57 L14,4.429 C14,4.047 13.44,3.856 13.112,4.126 L11,5.867 Z" id="fill"></path>
        </g>
    </g>
</svg>
